X:1
T: Reel to Reel Reel
R: reel
C: Rick Gagne
N: 1991 on whistle
M: 4/4
Q: 1/4=175
K: Amix
cd | "A"eA~A2 ecAc | "G"BG~G2 "D"AFF2 | "A"AEAB cdec | "Em"BGBd gfed |
"A"eA~A2 ecAc | "G"BG~G2 "D"AF~F2 | "A"Acag fgec | "G"BGdB "A"A2 :|
ec | "A"Acag fgec | "C"agfg "Em"egdB | "A"Acag fgec | "G"BGBc d2cd |
"A"eAgf gece | "G"dBGB d2cd | "Em"edef gedB | "A"Aaag a2 :|
